modules/entypo/icons/retweet.svg

<svg height="1000px" width="1000px" xmlns="http://www.w3.org/2000/svg">
  <g>
    <path d="M250 660c0 0 272 0 272 0c0 0 128 140 128 140c0 0 -448 0 -448 0c-28 0 -51.667 -10 -71 -30c-19.333 -20 -29 -43.333 -29 -70c0 0 0 -302 0 -302c0 0 -102 0 -102 0c0 0 176 -198 176 -198c0 0 174 198 174 198c0 0 -100 0 -100 0c0 0 0 262 0 262c0 0 0 0 0 0m650 -60c0 0 100 0 100 0c0 0 -174 200 -174 200c0 0 -176 -200 -176 -200c0 0 102 0 102 0c0 0 0 -260 0 -260c0 0 -274 0 -274 0c0 0 -128 -140 -128 -140c0 0 450 0 450 0c26.667 0 50 9.667 70 29c20 19.333 30 43 30 71c0 0 0 300 0 300c0 0 0 0 0 0" />
  </g>
</svg>

<svg height="1000" width="1000" xmlns="http://www.w3.org/2000/svg"><path d="M250 660h272l128 140H202c-28 0-51.667-10-71-30s-29-43.333-29-70V398H0l176-198 174 198H250v262m650-60h100L826 800 650 600h102V340H478L350 200h450c26.667 0 50 9.667 70 29s30 43 30 71v300"/></svg>
